theme/icons/trees.svg

<svg fill="none" height="24" viewBox="0 0 24 24" width="24" xmlns="http://www.w3.org/2000/svg"><path clip-rule="evenodd" d="m12.7401 16.3185c-.7051.7941-1.6593 1.3621-2.7401 1.5815v3.1c0 .5523-.44772 1-1 1s-1-.4477-1-1v-3.1c-2.28224-.4633-4-2.481-4-4.9v-6c0-2.76142 2.23858-5 5-5 2.6087 0 4.7508 1.99781 4.9797 4.54693.5929-.34763 1.2834-.54693 2.0203-.54693 2.2091 0 4 1.79086 4 4v4c0 1.8638-1.2748 3.4299-3 3.874v3.126c0 .5523-.4477 1-1 1s-1-.4477-1-1v-3.126c-.9253-.2382-1.721-.799-2.2599-1.5555zm-.7401-9.3185v6c0 1.3062-.8348 2.4175-2 2.8293v-2.8293c0-.5523-.44772-1-1-1s-1 .4477-1 1v2.8293c-1.16519-.4118-2-1.5231-2-2.8293v-6c0-1.65685 1.34315-3 3-3 1.6569 0 3 1.34315 3 3zm5 8.7324v-2.7324c0-.5523-.4477-1-1-1s-1 .4477-1 1v2.7324c-.5978-.3458-1-.9921-1-1.7324v-4c0-1.10457.8954-2 2-2s2 .89543 2 2v4c0 .7403-.4022 1.3866-1 1.7324z" fill="#f4f4f7" fill-rule="evenodd"/></svg>

<svg fill="none" height="24" width="24" xmlns="http://www.w3.org/2000/svg">
    <path clip-rule="evenodd" d="M12.74 16.319A4.995 4.995 0 0 1 10 17.9V21a1 1 0 1 1-2 0v-3.1A5.002 5.002 0 0 1 4 13V7a5 5 0 0 1 9.98-.453A4 4 0 0 1 20 10v4a4.002 4.002 0 0 1-3 3.874V21a1 1 0 1 1-2 0v-3.126a4.005 4.005 0 0 1-2.26-1.556zM12 7v6a3.001 3.001 0 0 1-2 2.83V13a1 1 0 1 0-2 0v2.83A3.001 3.001 0 0 1 6 13V7a3 3 0 0 1 6 0zm5 8.732V13a1 1 0 1 0-2 0v2.732A2 2 0 0 1 14 14v-4a2 2 0 1 1 4 0v4a2 2 0 0 1-1 1.732z" fill="#f4f4f7" fill-rule="evenodd"/>
</svg>
